dist/assets/images/icons/hand.svg

<svg width="87" height="96" viewBox="0 0 87 96" fill="none" xmlns="http://www.w3.org/2000/svg">
<path d="M39.9738 5.26397C39.6244 4.93634 39.2749 4.69607 38.9472 4.52134C38.6196 4.36844 38.2483 4.28107 37.8333 4.28107C37.3528 4.28107 37.0033 4.39028 36.763 4.58686C36.5228 4.78344 36.3917 5.11108 36.3917 5.54792C36.3917 5.85371 36.5228 6.13766 36.7849 6.33424C37.047 6.55266 37.3528 6.74924 37.7459 6.94582C38.1391 7.1424 38.5541 7.33898 38.9909 7.5574C39.4278 7.77582 39.8428 8.01609 40.2359 8.32188C40.6291 8.62767 40.9349 8.97715 41.197 9.41399C41.4591 9.85083 41.5902 10.375 41.5902 10.9866C41.5902 11.9258 41.3281 12.734 40.8257 13.4111C40.3233 14.0882 39.537 14.5251 38.5322 14.7653V16.8185H36.632V14.8527C36.0641 14.7872 35.4525 14.6343 34.8191 14.3722C34.1856 14.1101 33.6396 13.7824 33.1809 13.3674L34.4478 11.4235C34.9501 11.7948 35.4307 12.0787 35.8675 12.2753C36.3262 12.4719 36.7849 12.5593 37.2436 12.5593C37.7896 12.5593 38.2046 12.4501 38.4449 12.2316C38.707 12.0132 38.838 11.6637 38.838 11.2051C38.838 10.8556 38.707 10.5716 38.4449 10.3314C38.1828 10.0911 37.877 9.87268 37.4838 9.65425C37.0907 9.43583 36.6757 9.21741 36.2388 8.99899C35.802 8.78057 35.387 8.51846 34.9938 8.21267C34.6007 7.90688 34.2949 7.5574 34.0328 7.1424C33.7706 6.7274 33.6396 6.24687 33.6396 5.65713C33.6396 4.69607 33.9017 3.88791 34.4259 3.25449C34.9501 2.62106 35.6928 2.20606 36.6101 2.03132V0H38.5104V1.98764C39.1438 2.07501 39.6899 2.27159 40.1704 2.55554C40.6509 2.83949 41.0659 3.18896 41.4591 3.60396L39.9738 5.26397Z" fill="#333B41"/>
<path fill-rule="evenodd" clip-rule="evenodd" d="M87 76.0006L83.4063 73.7891L75.3895 88.164L79.2597 90.0991L87 76.0006Z" fill="#333B41"/>
<path fill-rule="evenodd" clip-rule="evenodd" d="M81.4707 73.2357C72.0717 62.4546 63.7785 65.219 52.7209 72.4064C43.0454 78.7646 35.858 74.3415 28.6705 77.3824C27.0119 78.2117 24.5239 80.1468 26.7354 82.0819C27.8412 82.9112 32.2642 83.7405 33.6464 83.4641C41.1103 81.8054 43.3219 85.1227 54.6559 82.9112C51.3387 85.3991 40.5575 83.7405 33.9229 84.5698C28.6705 85.6756 20.1008 81.529 27.0119 76.8295C23.971 75.4473 21.2066 74.6179 17.8893 74.3415C14.572 71.8535 9.31965 68.8127 6.55525 67.7069C4.34372 66.3247 -1.1851 66.8776 2.40863 70.4713C6.00236 73.7886 15.6778 81.2525 17.6129 82.3583C25.3532 87.0578 32.5407 90.3751 40.0046 94.5217C40.0046 94.5217 42.4926 95.9039 47.4685 93.9688C51.0622 92.3102 67.0958 83.4641 70.966 84.8463C73.1775 85.6756 74.2832 86.2285 74.2832 86.2285L81.4707 73.2357Z" stroke="#333B41" stroke-width="1.5"/>
<path fill-rule="evenodd" clip-rule="evenodd" d="M34.7528 72.406C35.3057 71.3003 35.8586 70.471 36.6879 70.1945C37.5172 69.9181 37.7937 70.471 38.3465 71.0238C38.8994 71.8532 39.1759 72.1296 40.0052 72.6825C40.2816 72.9589 40.8345 72.9589 41.1109 72.9589L40.5581 72.6825C39.7287 72.1296 39.1759 71.5767 39.4523 70.471C39.4523 70.1945 39.1759 69.6416 39.7287 69.6416C40.2816 69.9181 41.1109 70.471 41.9403 70.471C41.9403 70.471 42.7696 70.7474 42.4931 70.471C42.4931 70.1945 41.9403 69.9181 41.6638 69.6416C40.0052 68.2594 40.0052 67.983 40.0052 66.0479C40.2816 63.2835 39.1759 61.072 37.2408 59.1369C32.8177 54.7138 34.7528 48.6321 38.0701 42.8269C41.1109 37.5745 43.8753 36.7452 40.8345 30.387C39.7287 27.6226 37.7937 24.8582 37.5172 23.1996C37.5172 22.6467 37.5172 22.9231 37.5172 23.1996C37.2408 24.8582 38.3465 27.3462 39.4523 29.8342C41.9403 35.363 41.3874 35.9159 37.7937 40.8918C33.9235 45.8677 31.1591 51.1201 32.8177 56.6489C33.9235 60.5191 39.4523 64.3893 36.6879 66.8772C35.3057 67.983 33.3706 70.7474 33.0942 72.406C32.8177 73.2354 32.8177 73.2354 32.5413 73.7882C32.2648 74.0647 32.5413 74.0647 32.8177 74.0647C34.1999 73.7882 34.1999 73.2354 34.7528 72.406Z" fill="#333B41"/>
<path d="M53.068 46.529L53.9801 46.2684L54.0232 47.2161C54.171 50.4683 52.7785 54.3664 50.4893 57.4425C49.3023 59.0375 47.8405 60.4545 46.1798 61.4487C47.2729 61.074 48.4759 60.3838 49.693 59.1695C52.9277 55.6792 53.8196 51.2419 54.8558 45.5536C53.8903 45.6402 52.939 45.8564 51.9621 46.1392C51.3211 46.3247 50.6773 46.5364 50.0111 46.757C49.9707 46.7704 49.9303 46.7838 49.8898 46.7972C49.2724 47.0018 48.6358 47.2127 47.983 47.4089C42.8544 49.3021 40.0789 51.6595 39.0705 54.3645C38.8202 55.654 38.8551 56.8192 39.2935 57.696L39.3303 57.7696L39.3502 57.8495C39.5236 58.5427 40.2251 59.1847 41.1664 59.7019C42.2176 58.713 42.9504 57.8296 43.6711 56.9124C43.4958 57.0928 43.3319 57.265 43.177 57.428C43.0512 57.5602 42.9313 57.6863 42.8158 57.8057C42.6195 58.0085 42.4294 58.1985 42.2546 58.3497C42.0972 58.4858 41.8775 58.6584 41.6242 58.7429L41.4353 58.8059L41.24 58.7668C40.3452 58.5879 39.6727 58.0935 39.397 57.2664C39.1499 56.5252 39.2728 55.6546 39.5608 54.7804C40.0551 52.8473 41.5708 51.3363 43.8139 50.0545C46.0718 48.7643 49.1837 47.6388 53.068 46.529Z" stroke="#333B41" stroke-width="1.5"/>
<path d="M26.3596 28.3643C24.8834 27.8492 23.5975 27.4005 22.1588 27.1376C22.2081 27.3788 22.2565 27.6174 22.3044 27.8534C22.435 28.4962 22.5616 29.1198 22.6907 29.7246C22.6549 29.2771 22.6472 28.8382 22.6697 28.4123L22.7194 27.4666L23.6286 27.7318C26.9611 28.7037 29.6538 29.6903 31.6309 30.8047C33.3949 31.7989 34.6825 32.9473 35.2883 34.3665C34.4485 32.1059 32.2374 30.1686 27.9065 28.8948L27.8936 28.8911L27.8809 28.8868C27.3455 28.7083 26.8424 28.5328 26.3596 28.3643ZM25.6847 37.3306C25.1001 36.544 24.585 35.692 24.1531 34.809C24.7589 36.2532 25.5581 37.5474 26.7134 38.7026L26.7232 38.7124L26.7326 38.7226C27.369 39.4079 28.008 39.8995 28.6251 40.2466C27.5046 39.4579 26.5136 38.4458 25.6847 37.3306ZM35.4641 37.5153C35.8985 36.6464 35.911 35.8128 35.5015 34.9459C35.7846 35.7323 35.7967 36.5125 35.5112 37.1786C35.205 37.893 34.5926 38.3874 33.8288 38.5784L33.617 38.6313L33.4098 38.5623C33.3252 38.5341 33.2444 38.4969 33.1683 38.4549C33.3424 38.6533 33.5256 38.8554 33.7217 39.0632L33.7415 39.0582C34.7005 38.8185 35.2238 38.4027 35.4073 37.6688L35.4273 37.589L35.4641 37.5153Z" stroke="#333B41" stroke-width="1.5"/>
<path d="M50.7817 28.6732C50.4562 29.0618 50.1084 29.4321 49.7404 29.7769C49.9069 29.6372 50.0745 29.4842 50.2426 29.3168C50.4332 29.1065 50.6125 28.892 50.7817 28.6732ZM53.9904 19.4627C53.9931 19.448 53.9958 19.4334 53.9985 19.4187C52.4669 19.7171 50.8898 20.1954 49.1138 20.8614L49.1138 20.8615L49.1027 20.8654C45.6254 22.1073 43.7148 23.5076 42.8639 25.3816C43.4433 24.192 44.4856 23.2206 45.9543 22.3769C47.6626 21.3955 50.0171 20.5463 53.0761 19.712L53.9904 19.4627ZM43.9138 29.1639C43.613 29.0636 43.3531 28.9102 43.14 28.7121C43.3282 29.0573 43.5877 29.3412 43.9505 29.5207C44.0559 29.4111 44.1572 29.3035 44.2551 29.1976C44.2211 29.2007 44.1863 29.2024 44.1509 29.2024H44.0292L43.9138 29.1639Z" stroke="#333B41" stroke-width="1.5"/>
</svg>

<svg width="87" height="96" fill="none" xmlns="http://www.w3.org/2000/svg"><path d="M39.974 5.264a4.815 4.815 0 00-1.027-.743 2.606 2.606 0 00-1.114-.24c-.48 0-.83.11-1.07.306-.24.196-.371.524-.371.96 0 .307.13.59.393.787.262.219.568.415.96.612.394.196.81.393 1.246.611.437.219.852.46 1.245.765.393.306.699.655.961 1.092.262.437.393.961.393 1.573 0 .939-.262 1.747-.764 2.424-.503.677-1.289 1.114-2.294 1.354v2.053h-1.9v-1.965a6.786 6.786 0 01-1.813-.48c-.633-.263-1.18-.59-1.638-1.006l1.267-1.944a7.77 7.77 0 001.42.852c.458.197.917.284 1.376.284.546 0 .96-.109 1.2-.327.263-.219.394-.568.394-1.027 0-.35-.131-.633-.393-.874a4.933 4.933 0 00-.961-.677A32.334 32.334 0 0036.239 9a7.458 7.458 0 01-1.245-.786 4.078 4.078 0 01-.961-1.07c-.262-.416-.393-.896-.393-1.486 0-.96.262-1.77.786-2.403s1.267-1.048 2.184-1.223V0h1.9v1.988c.634.087 1.18.284 1.66.568.48.283.896.633 1.29 1.048l-1.486 1.66z" fill="#333B41"/><path fill-rule="evenodd" clip-rule="evenodd" d="M87 76l-3.594-2.21-8.017 14.374 3.87 1.935L87 76.001z" fill="#333B41"/><path clip-rule="evenodd" d="M81.47 73.236c-9.398-10.781-17.691-8.017-28.75-.83-9.675 6.359-16.862 1.935-24.05 4.976-1.658.83-4.146 2.765-1.935 4.7 1.106.83 5.53 1.659 6.911 1.382 7.464-1.659 9.676 1.659 21.01-.553-3.317 2.488-14.099.83-20.733 1.659-5.253 1.106-13.822-3.041-6.911-7.74-3.041-1.383-5.805-2.212-9.123-2.489-3.317-2.487-8.57-5.528-11.334-6.634-2.211-1.382-7.74-.83-4.146 2.764 3.593 3.318 13.269 10.781 15.204 11.887 7.74 4.7 14.928 8.017 22.392 12.164 0 0 2.488 1.382 7.463-.553 3.594-1.659 19.628-10.505 23.498-9.123 2.212.83 3.317 1.382 3.317 1.382l7.188-12.992z" stroke="#333B41" stroke-width="1.5"/><path fill-rule="evenodd" clip-rule="evenodd" d="M34.753 72.406c.553-1.106 1.106-1.935 1.935-2.212.83-.276 1.106.277 1.658.83.553.83.83 1.106 1.66 1.659.276.276.828.276 1.105.276l-.553-.276c-.83-.553-1.382-1.106-1.106-2.212 0-.276-.276-.83.277-.83.553.277 1.382.83 2.211.83 0 0 .83.276.553 0 0-.276-.553-.553-.83-.83-1.658-1.382-1.658-1.658-1.658-3.593.277-2.765-.83-4.976-2.764-6.911-4.423-4.423-2.488-10.505.83-16.31 3.04-5.252 5.804-6.082 2.764-12.44-1.106-2.764-3.041-5.529-3.318-7.187 0-.553 0-.277 0 0-.276 1.658.83 4.146 1.935 6.634 2.488 5.529 1.935 6.082-1.658 11.058-3.87 4.976-6.635 10.228-4.976 15.757 1.105 3.87 6.634 7.74 3.87 10.228-1.382 1.106-3.317 3.87-3.594 5.529-.276.83-.276.83-.553 1.382-.276.277 0 .277.277.277 1.382-.277 1.382-.83 1.935-1.659z" fill="#333B41"/><path d="M53.068 46.529l.912-.26.043.947c.148 3.252-1.245 7.15-3.534 10.227-1.187 1.595-2.648 3.012-4.31 4.006 1.094-.375 2.297-1.065 3.514-2.28 3.235-3.49 4.127-7.927 5.163-13.615-.966.086-1.917.302-2.894.585a53.99 53.99 0 00-2.072.658c-.618.205-1.254.416-1.907.612-5.129 1.893-7.904 4.25-8.912 6.956-.25 1.289-.216 2.454.223 3.331l.036.074.02.08c.174.693.875 1.335 1.816 1.852 1.052-.989 1.784-1.872 2.505-2.79a49.8 49.8 0 00-.494.516l-.361.378a9.202 9.202 0 01-.561.544c-.158.136-.378.308-.63.393l-.19.063-.195-.04c-.895-.178-1.567-.672-1.843-1.5-.247-.74-.124-1.611.164-2.486.494-1.933 2.01-3.444 4.253-4.726 2.258-1.29 5.37-2.415 9.254-3.525zM26.36 28.364c-1.477-.515-2.762-.963-4.201-1.226.05.24.098.48.145.715.131.643.258 1.267.387 1.872a9.918 9.918 0 01-.021-1.313l.05-.945.909.265c3.332.972 6.025 1.958 8.002 3.073 1.764.994 3.051 2.142 3.657 3.562-.84-2.261-3.05-4.198-7.381-5.472l-.013-.004-.013-.004a112.99 112.99 0 01-1.521-.523zm-.675 8.967a16.103 16.103 0 01-1.532-2.522c.606 1.444 1.405 2.738 2.56 3.894l.01.01.01.01c.636.685 1.275 1.177 1.892 1.524-1.12-.79-2.111-1.801-2.94-2.916zm9.78.184c.433-.869.446-1.702.036-2.57.284.787.296 1.568.01 2.234-.306.714-.918 1.208-1.682 1.4l-.212.052-.207-.069a1.453 1.453 0 01-.242-.107c.174.198.358.4.554.608l.02-.005c.959-.24 1.482-.655 1.665-1.39l.02-.079.037-.074zm15.317-8.842a12.6 12.6 0 01-1.042 1.104c.167-.14.334-.293.503-.46.19-.21.37-.425.539-.644zm3.208-9.21l.008-.044c-1.531.298-3.108.776-4.884 1.442h0l-.011.004c-3.478 1.242-5.388 2.643-6.24 4.517.58-1.19 1.623-2.161 3.091-3.005 1.709-.982 4.063-1.83 7.122-2.665l.914-.25zm-10.076 9.7c-.301-.1-.56-.253-.774-.45.188.344.448.628.81.808.106-.11.207-.218.305-.323a1.148 1.148 0 01-.104.004h-.122l-.115-.038z" stroke="#333B41" stroke-width="1.5"/></svg>
